source/_posts/2022/Scandinavian-Presets-for-Lightroom/Scandinavian Seascape.xmp
<x:xmpmeta xmlns:x="adobe:ns:meta/" x:xmptk="Adobe XMP Core 7.0-c000 1.000000, 0000/00/00-00:00:00        ">
 <rdf:RDF xmlns:rdf="http://www.w3.org/1999/02/22-rdf-syntax-ns#">
  <rdf:Description rdf:about=""
    xmlns:crs="http://ns.adobe.com/camera-raw-settings/1.0/"
   crs:PresetType="Normal"
   crs:Cluster=""
   crs:UUID="1E60FBA8EF1F8142B537E81535903FED"
   crs:SupportsAmount2="True"
   crs:SupportsAmount="True"
   crs:SupportsColor="True"
   crs:SupportsMonochrome="True"
   crs:SupportsHighDynamicRange="True"
   crs:SupportsNormalDynamicRange="True"
   crs:SupportsSceneReferred="True"
   crs:SupportsOutputReferred="True"
   crs:RequiresRGBTables="False"
   crs:CameraModelRestriction=""
   crs:Copyright=""
   crs:ContactInfo=""
   crs:Version="14.4.1"
   crs:CompatibleVersion="234881024"
   crs:ProcessVersion="11.0"
   crs:WhiteBalance="As Shot"
   crs:Exposure2012="-0.48"
   crs:Contrast2012="-22"
   crs:Highlights2012="-26"
   crs:Shadows2012="+40"
   crs:Whites2012="+57"
   crs:Blacks2012="+76"
   crs:Texture="0"
   crs:Clarity2012="+90"
   crs:Dehaze="0"
   crs:Vibrance="+62"
   crs:Saturation="+7"
   crs:ParametricShadows="-40"
   crs:ParametricDarks="-5"
   crs:ParametricLights="+31"
   crs:ParametricHighlights="-37"
   crs:ParametricShadowSplit="25"
   crs:ParametricMidtoneSplit="50"
   crs:ParametricHighlightSplit="75"
   crs:Sharpness="96"
   crs:SharpenRadius="+1.0"
   crs:SharpenDetail="35"
   crs:SharpenEdgeMasking="53"
   crs:LuminanceSmoothing="32"
   crs:LuminanceNoiseReductionDetail="50"
   crs:LuminanceNoiseReductionContrast="0"
   crs:ColorNoiseReduction="62"
   crs:ColorNoiseReductionDetail="50"
   crs:ColorNoiseReductionSmoothness="50"
   crs:HueAdjustmentRed="0"
   crs:HueAdjustmentOrange="0"
   crs:HueAdjustmentYellow="0"
   crs:HueAdjustmentGreen="0"
   crs:HueAdjustmentAqua="0"
   crs:HueAdjustmentBlue="-6"
   crs:HueAdjustmentPurple="0"
   crs:HueAdjustmentMagenta="0"
   crs:SaturationAdjustmentRed="0"
   crs:SaturationAdjustmentOrange="+62"
   crs:SaturationAdjustmentYellow="+32"
   crs:SaturationAdjustmentGreen="+35"
   crs:SaturationAdjustmentAqua="0"
   crs:SaturationAdjustmentBlue="0"
   crs:SaturationAdjustmentPurple="0"
   crs:SaturationAdjustmentMagenta="0"
   crs:LuminanceAdjustmentRed="0"
   crs:LuminanceAdjustmentOrange="0"
   crs:LuminanceAdjustmentYellow="0"
   crs:LuminanceAdjustmentGreen="0"
   crs:LuminanceAdjustmentAqua="0"
   crs:LuminanceAdjustmentBlue="-17"
   crs:LuminanceAdjustmentPurple="0"
   crs:LuminanceAdjustmentMagenta="0"
   crs:SplitToningShadowHue="0"
   crs:SplitToningShadowSaturation="0"
   crs:SplitToningHighlightHue="0"
   crs:SplitToningHighlightSaturation="0"
   crs:SplitToningBalance="0"
   crs:ColorGradeMidtoneHue="0"
   crs:ColorGradeMidtoneSat="0"
   crs:ColorGradeShadowLum="0"
   crs:ColorGradeMidtoneLum="0"
   crs:ColorGradeHighlightLum="0"
   crs:ColorGradeBlending="50"
   crs:ColorGradeGlobalHue="0"
   crs:ColorGradeGlobalSat="0"
   crs:ColorGradeGlobalLum="0"
   crs:GrainAmount="0"
   crs:PostCropVignetteAmount="-33"
   crs:PostCropVignetteMidpoint="50"
   crs:PostCropVignetteFeather="50"
   crs:PostCropVignetteRoundness="0"
   crs:PostCropVignetteStyle="1"
   crs:PostCropVignetteHighlightContrast="0"
   crs:ShadowTint="0"
   crs:RedHue="0"
   crs:RedSaturation="0"
   crs:GreenHue="0"
   crs:GreenSaturation="0"
   crs:BlueHue="0"
   crs:BlueSaturation="0"
   crs:ConvertToGrayscale="False"
   crs:OverrideLookVignette="True"
   crs:ToneCurveName2012="Linear"
   crs:CameraProfile="Adobe Standard"
   crs:CameraProfileDigest="2FEA3EA92D5DFE77FBB77CCAD84C4769"
   crs:HasSettings="True">
   <crs:Name>
    <rdf:Alt>
     <rdf:li xml:lang="x-default">Scandinavian Seascape</rdf:li>
    </rdf:Alt>
   </crs:Name>
   <crs:ShortName>
    <rdf:Alt>
     <rdf:li xml:lang="x-default"/>
    </rdf:Alt>
   </crs:ShortName>
   <crs:SortName>
    <rdf:Alt>
     <rdf:li xml:lang="x-default"/>
    </rdf:Alt>
   </crs:SortName>
   <crs:Group>
    <rdf:Alt>
     <rdf:li xml:lang="x-default">kiko.io</rdf:li>
    </rdf:Alt>
   </crs:Group>
   <crs:Description>
    <rdf:Alt>
     <rdf:li xml:lang="x-default"/>
    </rdf:Alt>
   </crs:Description>
   <crs:ToneCurvePV2012>
    <rdf:Seq>
     <rdf:li>0, 0</rdf:li>
     <rdf:li>255, 255</rdf:li>
    </rdf:Seq>
   </crs:ToneCurvePV2012>
   <crs:ToneCurvePV2012Red>
    <rdf:Seq>
     <rdf:li>0, 0</rdf:li>
     <rdf:li>255, 255</rdf:li>
    </rdf:Seq>
   </crs:ToneCurvePV2012Red>
   <crs:ToneCurvePV2012Green>
    <rdf:Seq>
     <rdf:li>0, 0</rdf:li>
     <rdf:li>255, 255</rdf:li>
    </rdf:Seq>
   </crs:ToneCurvePV2012Green>
   <crs:ToneCurvePV2012Blue>
    <rdf:Seq>
     <rdf:li>0, 0</rdf:li>
     <rdf:li>255, 255</rdf:li>
    </rdf:Seq>
   </crs:ToneCurvePV2012Blue>
   <crs:MaskGroupBasedCorrections>
    <rdf:Seq>
     <rdf:li>
      <rdf:Description
       crs:What="Correction"
       crs:CorrectionAmount="1"
       crs:CorrectionActive="true"
       crs:CorrectionName="Mask 1"
       crs:CorrectionSyncID="DA31B947A7F16AEF9999068C45F0893F"
       crs:LocalExposure="0"
       crs:LocalSaturation="0"
       crs:LocalContrast="0"
       crs:LocalClarity="0"
       crs:LocalSharpness="0"
       crs:LocalBrightness="-0.214"
       crs:LocalToningHue="15"
       crs:LocalToningSaturation="0.07"
       crs:LocalExposure2012="-0.214"
       crs:LocalContrast2012="0"
       crs:LocalHighlights2012="0"
       crs:LocalShadows2012="0"
       crs:LocalClarity2012="0"
       crs:LocalLuminanceNoise="0"
       crs:LocalMoire="0"
       crs:LocalDefringe="0"
       crs:LocalTemperature="0"
       crs:LocalTint="0">
      <crs:CorrectionMasks>
       <rdf:Seq>
        <rdf:li
         crs:What="Mask/Gradient"
         crs:MaskActive="true"
         crs:MaskName="Linear Gradient 1"
         crs:MaskBlendMode="0"
         crs:MaskInverted="false"
         crs:MaskSyncID="3566B772EE4EE84F9F3F406E56FBC95D"
         crs:MaskValue="1"
         crs:ZeroX="0.512454"
         crs:ZeroY="0.711844"
         crs:FullX="0.512428"
         crs:FullY="0.248227"/>
       </rdf:Seq>
      </crs:CorrectionMasks>
      <crs:CorrectionRangeMask
       crs:Version="1"
       crs:Type="0"
       crs:ColorAmount="0.5"
       crs:LumMin="0"
       crs:LumMax="1"
       crs:LumFeather="0.5"
       crs:DepthMin="0"
       crs:DepthMax="1"
       crs:DepthFeather="0.5"/>
      </rdf:Description>
     </rdf:li>
    </rdf:Seq>
   </crs:MaskGroupBasedCorrections>
  </rdf:Description>
 </rdf:RDF>
</x:xmpmeta>
